build/finance/CreditCardOutline.svg

<svg xmlns="http://www.w3.org/2000/svg" fill="none" viewBox="0 0 24 24" focusable="false"><path d="M0 0H24V24H0z"/><path fill="#74767B" fill-rule="evenodd" d="M6 19.0001C4.34314 19.0001 3 17.6569 3 16.0001L3 8.00006C3 6.34321 4.34315 5.00006 6 5.00006L18 5.00006C18.1036 5.00006 18.2059 5.00531 18.3067 5.01555C19.8195 5.16918 21 6.44676 21 8.00006L21 16.0001C21 17.6569 19.6569 19.0001 18 19.0001L6 19.0001ZM19.7 8.00006C19.7 7.06118 18.9389 6.30006 18 6.30006L6 6.30006C5.06112 6.30006 4.3 7.06118 4.3 8.00006L4.3 8.31947C4.36165 8.30007 4.42726 8.28961 4.49531 8.28961L19.7 8.28961L19.7 8.00006ZM4.3 16.0001L4.3 9.55976C4.36165 9.57915 4.42726 9.58961 4.49531 9.58961L19.7 9.58961L19.7 16.0001C19.7 16.9389 18.9389 17.7001 18 17.7001L6 17.7001C5.06112 17.7001 4.3 16.9389 4.3 16.0001ZM15.2139 10.8262C15.2291 10.8262 15.2443 10.8264 15.2594 10.8267C16.4308 10.8303 17.3792 11.781 17.3792 12.9532L17.3791 12.9702L17.3792 12.9915C17.3792 14.1874 16.4098 15.1568 15.2139 15.1568L14.2997 15.1568L14.2997 15.9418C14.2997 16.3008 14.0087 16.5918 13.6497 16.5918C13.639 16.5918 13.6283 16.5916 13.6177 16.5911C13.6122 16.5912 13.6066 16.5913 13.6011 16.5913C13.2678 16.5913 12.9977 16.3211 12.9977 15.9879L12.9977 11.4301C12.9977 11.0968 13.2678 10.8267 13.6011 10.8267L13.6253 10.8267C13.6335 10.8264 13.6416 10.8262 13.6497 10.8262L15.2139 10.8262ZM8.8734 14.3648L8.4297 14.3648L8.4297 15.9477C8.4297 16.3067 8.13869 16.5977 7.7797 16.5977C7.42071 16.5977 7.1297 16.3067 7.1297 15.9477L7.1297 11.4821C7.1297 11.1231 7.42071 10.8321 7.7797 10.8321C8.13869 10.8321 8.4297 11.1231 8.4297 11.4821L8.4297 13.0648L8.92983 13.0648C8.94363 13.0438 8.9588 13.0234 8.97534 13.0037L10.6002 11.0646C10.8308 10.7894 11.2407 10.7533 11.5159 10.9838C11.791 11.2144 11.8272 11.6244 11.5966 11.8995L10.0472 13.7485L11.5403 15.5303C11.7708 15.8054 11.7347 16.2154 11.4595 16.446C11.1844 16.6765 10.7744 16.6404 10.5439 16.3652L8.91899 14.4261C8.90242 14.4064 8.88722 14.3859 8.8734 14.3648ZM15.2139 13.8568L14.2997 13.8568L14.2997 12.1262L15.2139 12.1262C15.6918 12.1262 16.0792 12.5136 16.0792 12.9915C16.0792 13.4694 15.6918 13.8568 15.2139 13.8568Z"/></svg>

<svg xmlns="http://www.w3.org/2000/svg" fill="none" viewBox="0 0 24 24" focusable="false"><path fill="#74767B" fill-rule="evenodd" d="M6 19c-1.66 0-3-1.35-3-3V8c0-1.66 1.34-3 3-3h12c.1 0 .2 0 .3.01C19.81 5.16 21 6.44 21 8v8c0 1.65-1.35 3-3 3zM19.7 8c0-.94-.77-1.7-1.7-1.7H6c-.94 0-1.7.76-1.7 1.7v.31c.06-.01.12-.03.19-.03H19.7zM4.3 16V9.55c.06.02.12.03.19.03H19.7V16c0 .93-.77 1.7-1.7 1.7H6c-.94 0-1.7-.77-1.7-1.7m10.95-5.18H13.6c-.34 0-.61.27-.61.61v4.55c0 .34.27.61.61.61h.04c.36 0 .65-.29.65-.65v-.79h.92c1.19 0 2.16-.97 2.16-2.16v-.04c0-1.17-.94-2.12-2.12-2.13m-6.38 3.54h-.45v1.58c0 .36-.29.65-.65.65-.35 0-.65-.29-.65-.65v-4.46c0-.36.3-.65.65-.65.36 0 .65.29.65.65v1.58h.5c.02-.02.03-.04.05-.06l1.63-1.94a.64.64 0 0 1 .91-.08c.28.23.31.64.08.91l-1.55 1.85 1.5 1.79c.23.27.19.68-.09.91a.64.64 0 0 1-.91-.08l-1.63-1.94c-.01-.02-.03-.04-.04-.06m5.42-.51h.92c.48 0 .86-.39.86-.86 0-.48-.38-.87-.86-.87h-.92z"/></svg>
